X:1
T:B minor Daniel Read, 1785 (Revised 1804)
T:Isaac Watts, 1709 (Hymn 11, Book 2) 88. 88. (L. M.)
T:Newport
T:No copyright. Transcribed from the Columbian Harmonist, 1807.
T:No Copyright.  Transcribed from The American Singing Book, 1786.
T:No Copyright.  Transcribed from The American Singing Book, 1786.
T:No Copyright.  Transcribed from The American Singing Book, 1786.
Z:No Copyright.  Transcribed from The American Singing Book, 1786.
%%score [ 1 2 3 4 ]
L:1/8
M:4/4
K:D
V:1 treble nm="Treble" snm="Tr."
V:2 treble nm="Counter" snm="C."
V:3 treble-8 nm="Tenor" snm="T."
V:4 bass nm="Bass" snm="B."
V:1
 B4 d2 B2 | c2 c2 B2 ^A2 | B2 c2 B2 c2 | d2 A2 B2 B2 | c8 | A4 A2 F2 | F2 B2 B2 A2 | A2 A2 B2 c2 | %8
 B2 ed c2 c2 | B8 |: z4 B4 | f2 e>d c2 c2 | d2 e2 f2 f2 | B2 ^A2 B2 F2 | B2 B2 ^A4 | c4 d2 e2 | %16
 f2 fe d2 e2 | f4 f4 | d2 c2 c2 B2 | ^A6 A2 | B8 :| %21
V:2
 F4 F2 F2 | F2 FE DE F2 | F2 F2 F2 FG | A2 A2 G2 F2 | F8 | F4 F2 F2 | F>E D2 E2 E2 | F2 F2 G2 G2 | %8
w: 1.~I send the|joys of * earth * a-|way; A- way, ye *|temp- ters of the|mind!|False as the|smooth, * de- ceit- ful|sea, And emp- ty|
 F2 G2 F2 F2 | F8 |: z4 F4 | F2 G2 A2 A2 | A2 A2 B2 AG | F2 FE DE F2 | G2 F2 F4 | F4 F2 FG | %16
w: as the whis- tling|wind.|Your|streams were float- ing|me a- long Down *|to the * gulf * of|black des- pair,|And while I *|
 A2 A2 G2 G2 | A4 F4 | A2 A2 AG F2 | (F3 G F2) F2 | F8 :| %21
w: lis- tened to your|song, Your|streams had e'en * con-|veyed * * me|there.|
V:3
 F4 B2 d2 | c>B A2 B2 c2 | d2 c2 d2 e2 | f>e d>c B2 d2 | c8 | c4 d2 cB | c2 BA B2 c2 | %7
w: 2.~Lord, I a-|dore * Thy match- less|grace, That warned me|of * that * dark a-|byss,|That drew me *|from those * treach- erous|
 d2 cd e2 c2 | d2 cB ^A2 A2 | B8 |: z4 F4 | B2 cB A2 F>G | A2 F2 B2 c2 | d2 c2 B2 ^A2 | Bc d2 c4 | %15
w: seas, And * bid me|seek su- * per- ior|bliss.|Now|to the * shin- ing *|realms a- bove I|stretch my hands and|glance * mine eyes;|
 f4 d2 cB | A2 F2 B^A Bc | d4 c4 | f2 fe d>c B>d | c6 c2 | B8 :| %21
w: O for the *|pin- ions of * a *|dove, To|bear me * to * the *|up- per|skies!|
V:4
 B,,4 B,,2 B,,2 | F,2 F,2 G,2 F,E, | D,>E, F,2 B,2 A,G, | F,2 F,2 E,2 D,E, | F,8 | F,4 F,2 F,2 | %6
 F,2 G,F, E,2 A,G, | F,2 F,2 E,2 E,2 | D,2 E,2 F,2 F,2 | B,,8 |: z4 B,,4 | D,2 E,2 F,2 F,>E, | %12
 D,2 C,2 B,,2 F,2 | B,2 F,2 G,2 F,2 | E,2 D,E, F,4 | F,4 B,2 A,G, | F,2 F,2 G,F, E,2 | D,4 F,4 | %18
 F,2 F,>G, A,2 B,2 | F,6 F,2 | B,,8 :| %21

